fs/headset_28_regular.svg

<svg viewBox="0 0 28 28" fill="none" xmlns="http://www.w3.org/2000/svg" height="1em" width="1em">
  <path d="M14 2C18.8818 2 22.8558 5.88681 22.9962 10.7346L23 11V16.2543C23 17.7168 21.8583 18.9127 20.4175 18.9993L20.25 19.0043H17.2539C16.8742 19.0043 16.5605 18.7222 16.5108 18.3561L16.5039 18.2543V12.25C16.5039 11.8703 16.7861 11.5565 17.1522 11.5068L17.2539 11.5H21.25C21.3353 11.5 21.4191 11.5061 21.5011 11.5179L21.5 11C21.5 6.85786 18.1421 3.5 14 3.5C9.93908 3.5 6.63198 6.72747 6.50385 10.7573L6.5 11V11.499L10.7461 11.5C11.1258 11.5 11.4395 11.7822 11.4892 12.1482L11.4961 12.25V18.2543C11.4961 18.634 11.2139 18.9478 10.8478 18.9975L10.7461 19.0043H7.75C7.29999 19.0043 6.87523 18.8962 6.50025 18.7046L6.5 20.25C6.5 21.4409 7.42516 22.4156 8.59595 22.4948L8.75 22.5L11.0414 22.5007C11.2794 21.0815 12.5136 20 14.0004 20C15.6575 20 17.0009 21.3433 17.0009 23.0004C17.0009 24.6575 15.6575 26.0009 14.0004 26.0009C12.694 26.0009 11.5826 25.1659 11.1707 24.0005L8.75 24C6.74574 24 5.10873 22.4276 5.0052 20.4492L5 20.25V11C5 6.02944 9.02944 2 14 2ZM14.0004 21.5C13.1718 21.5 12.5 22.1718 12.5 23.0004C12.5 23.8291 13.1718 24.5009 14.0004 24.5009C14.8291 24.5009 15.5009 23.8291 15.5009 23.0004C15.5009 22.1718 14.8291 21.5 14.0004 21.5ZM9.996 13L6.5 12.999L6.50013 16.2725C6.50862 16.8685 6.9342 17.3635 7.49808 17.4789L7.62219 17.4979L7.75 17.5043L9.996 17.504V13ZM21.25 13H18.003V17.504L20.25 17.5043C20.8972 17.5043 21.4295 17.0124 21.4935 16.3821L21.5 16.2543V13.25C21.5 13.1317 21.4178 13.0325 21.3073 13.0066L21.25 13Z" fill="#212121"/>
</svg>

<svg viewBox="0 0 28 28" fill="none" xmlns="http://www.w3.org/2000/svg" height="1em" width="1em">
  <path d="M14 2a9 9 0 0 1 8.996 8.735L23 11v5.254A2.75 2.75 0 0 1 20.418 19l-.168.005h-2.996a.75.75 0 0 1-.743-.648l-.007-.102V12.25a.75.75 0 0 1 .648-.743l.102-.007h3.996c.085 0 .17.006.251.018L21.5 11a7.5 7.5 0 0 0-14.996-.243L6.5 11v.499l4.246.001a.75.75 0 0 1 .743.648l.007.102v6.004a.75.75 0 0 1-.648.743l-.102.007H7.75c-.45 0-.875-.108-1.25-.3v1.546a2.25 2.25 0 0 0 2.096 2.245l.154.005h2.291a3.001 3.001 0 1 1 .13 1.5H8.75a3.75 3.75 0 0 1-3.745-3.55L5 20.25V11a9 9 0 0 1 9-9Zm0 19.5a1.5 1.5 0 1 0 0 3 1.5 1.5 0 0 0 0-3ZM9.996 13 6.5 12.999v3.274a1.25 1.25 0 0 0 .998 1.206l.124.019.128.006h2.246V13Zm11.254 0h-3.247v4.504h2.247a1.25 1.25 0 0 0 1.244-1.122l.006-.128V13.25a.25.25 0 0 0-.193-.243L21.25 13Z" fill="#212121"/>
</svg>
